svg/u1f52b.svg

<svg viewBox="0 0 128 128" xmlns="http://www.w3.org/2000/svg">
  <path d="M123.16,52.83c-1.8,0-1.8,1.9-1.8,1.9v4.07h-0.83c-1.34-4.22-6.09-5.39-6.09-5.39 s-3.22,8.98-3.28,9.25c-0.05,0.26,3.06,5.97,3.06,5.97s5.58-1.08,6.51-6.08h0.62v3.54c0,0-0.16,2.01,1.85,2.01 c1.69,0,1.74-1.95,1.74-1.95V54.74C124.96,54.74,125.01,52.83,123.16,52.83z" fill="#00AA48"/>
  <path d="M13.83,54.75c0,0-3.73-0.09-4.41,0c-1.63,0.22-1.89,2-2.5,2.07c-0.49,0.05-3.31-0.24-4.19,0.33 c-0.93,0.6-1.03,6.53-0.11,7.13c0.93,0.6,3.65,0.27,4.24,0.54s1.14,1.85,2.83,2.01c1.69,0.16,6.48-0.11,6.48-0.11L13.83,54.75z" fill="#00AA48"/>
  <path d="M100.3,33.39h-5.94c-1.52-8.85-8.7-9.93-13.75-10.1c-2.57-0.09-43.56,0-48.95,0.09 c-6.33,0.1-11.47,5.39-11.55,13.27s6.76,12.5,10.78,13.01c3.53,0.45,55.2,0,55.2,0s6.7-2.25,8.17-10.53h3.81L100.3,33.39z" fill="#FCC11A"/>
  <path d="M32.86,30.22c0.27,3.25,2.65,3.34,7.96,3.25c5.39-0.09,32.27,0,34.75-0.09s4.02-2.05,3.77-3.42 s-1.71-2.83-4.96-2.91c-3.51-0.09-35-0.17-37.4-0.09C34.57,27.06,32.69,28.17,32.86,30.22z" fill="#FEFFFF"/>
  <path d="M86.33,90.15c-0.99-2.96-6.58-9.14-6.58-9.14s-2.72-0.37-2.82,2.7h-4.01 c-0.12-1.77-0.6-2.96-2.17-2.96c-2.03,0-1.92,3.13-1.92,4.95c0,1.82,0.28,3.82,2.03,3.87c1.43,0.04,1.89-0.93,2.03-2.62h4.56 c1,2.79,3.11,4.64,3.58,4.5C81.63,91.29,87.32,93.11,86.33,90.15z" fill="#EE3E23"/>
  <path d="M97.75,48.77c0,0-79.06,0.67-82.09,0.9s-3.14,4.59-3.14,6.83s0.02,10.18,0.13,11.86 s0.88,4.49,5.69,4.49s27.44,0.11,27.44,0.11s-0.78,3.36,2.46,5.94c3.25,2.58,5.71,2.13,11.65,2.24c5.94,0.11,19.28-0.03,19.28-0.03 s8.71,26.24,9.39,27.69c0.67,1.46,0.9,3.7,2.24,3.81c1.34,0.11,15.45,0.11,17.13,0c1.68-0.11,2.8-1.79,1.57-4.59 c-1.23-2.8-10.3-26.65-10.3-26.65s4.67-0.69,6.61-3.7c1.48-2.3,1.57-5.38,1.57-5.38s4.48,0.56,6.83-2.02 c2.35-2.58,1.57-5.6,1.68-10.08c0.11-4.48-0.34-7.17-1.23-8.51S112.53,50,112.53,50s2.39-1.45,2.46-3.81 c0.11-3.36-0.22-12.88-0.22-14.56s-1.12-3.25-3.47-3.36c-1.79-0.09-8.4-0.06-11.2-0.11c-3.43-0.07-3.25,2.46-3.36,6.05 c-0.09,2.91-0.11,10.18-0.11,11.2C96.63,47.42,97.75,48.77,97.75,48.77z" fill="#FF8E00"/>
  <path d="M56.49,79.15c0,0-0.91,6.99,3.02,10.86c2.54,2.49,4.77,4.25,14.84,4.39 c10.14,0.14,13.49,0.14,13.49,0.14l-1.01-5.32c0,0-13.95,1.01-19.77-0.14c-2.45-0.48-5.18-2.48-5.13-5.41 c0.04-2.28-0.03-5.23-0.03-5.23L56.49,79.15z" fill="#FF8E00"/>
  <path d="M51.7,70.92c0,1.76,0.76,2.23,3.11,2.23c2.52,0,42.58,0,43.82,0s2.87-0.47,2.82-2.4 c-0.06-1.94-2.17-1.64-2.99-1.64s-41.94,0-43.7,0S51.7,69.51,51.7,70.92z" fill="#EC3F23"/>
  <path d="M27.92,47.96c0,0,0,25.43,0,25.91c0,0.47,0.07,1.62,1.21,1.62c1.15,0,1.42-0.81,1.42-1.62 s0-26.31,0-26.31L27.92,47.96z" fill="#FCC11A"/>
  <path d="M32.58,47.38c0,0,0,25.3,0,26.18c0,0.88,0.2,1.89,1.28,1.89s1.42-0.94,1.42-1.96 c0-1.01,0-26.92,0-26.92L32.58,47.38z" fill="#FCC11A"/>
  <path d="M86.5,84.1c0.15,1.57,1.18,2.25,2.98,2.31c1.8,0.06,11.59,0,11.59,0l-1.58-4.39c0,0-9.4,0-10.13,0 S86.28,81.79,86.5,84.1z" fill="#EE3E23"/>
  <path d="M88.3,89.95c0.15,1.17,0.62,2.31,2.59,2.31c2.19,0,12.49,0,12.49,0l-1.69-4.45c0,0-9.9,0-10.86,0 S88.02,87.81,88.3,89.95z" fill="#EE3E23"/>
  <path d="M104,93.83c0,0-10.86,0-11.99,0c-1.13,0-2.08,0.68-1.91,2.03c0.17,1.35,0.73,2.08,2.42,2.14 c1.69,0.06,12.94,0,12.94,0L104,93.83z" fill="#EE3E23"/>
  <path d="M106.14,99.46c0,0-10.86,0-12.21,0s-2.31,0.79-1.8,2.25c0.51,1.46,1.52,1.69,2.48,1.74 c0.96,0.06,13,0,13,0L106.14,99.46z" fill="#EE3E23"/>
</svg>

<svg viewBox="0 0 128 128" xmlns="http://www.w3.org/2000/svg">
  <defs/>
  <path d="M123.16,52.83 C121.36,52.83 121.36,54.73 121.36,54.73 L121.36,58.8 L120.53,58.8 C119.19,54.58 114.44,53.41 114.44,53.41 C114.44,53.41 111.22,62.39 111.16,62.66 C111.11,62.92 114.22,68.63 114.22,68.63 C114.22,68.63 119.8,67.55 120.73,62.55 L121.35,62.55 L121.35,66.09 C121.35,66.09 121.19,68.1 123.2,68.1 C124.89,68.1 124.94,66.15 124.94,66.15 L124.94,54.74 C124.96,54.74 125.01,52.83 123.16,52.83 Z" fill="#00AA48"/>
  <path d="M13.83,54.75 C13.83,54.75 10.1,54.66 9.42,54.75 C7.79,54.97 7.53,56.75 6.92,56.82 C6.43,56.87 3.61,56.58 2.73,57.15 C1.8,57.75 1.7,63.68 2.62,64.28 C3.55,64.88 6.27,64.55 6.86,64.82 C7.45,65.09 8,66.67 9.69,66.83 C11.38,66.99 16.17,66.72 16.17,66.72 L13.83,54.75 Z" fill="#00AA48"/>
  <path d="M100.3,33.39 L94.36,33.39 C92.84,24.54 85.66,23.46 80.61,23.29 C78.04,23.2 37.05,23.29 31.66,23.38 C25.33,23.48 20.19,28.77 20.11,36.65 C20.03,44.53 26.87,49.15 30.89,49.66 C34.42,50.11 86.09,49.66 86.09,49.66 C86.09,49.66 92.79,47.41 94.26,39.13 L98.07,39.13 L100.3,33.39 Z" fill="#FCC11A"/>
  <path d="M32.86,30.22 C33.13,33.47 35.51,33.56 40.82,33.47 C46.21,33.38 73.09,33.47 75.57,33.38 C78.05,33.29 79.59,31.33 79.34,29.96 C79.09,28.59 77.63,27.13 74.38,27.05 C70.87,26.96 39.38,26.88 36.98,26.96 C34.57,27.06 32.69,28.17 32.86,30.22 Z" fill="#FEFFFF"/>
  <path d="M86.33,90.15 C85.34,87.19 79.75,81.01 79.75,81.01 C79.75,81.01 77.03,80.64 76.93,83.71 L72.92,83.71 C72.8,81.94 72.32,80.75 70.75,80.75 C68.72,80.75 68.83,83.88 68.83,85.7 C68.83,87.52 69.11,89.52 70.86,89.57 C72.29,89.61 72.75,88.64 72.89,86.95 L77.45,86.95 C78.45,89.74 80.56,91.59 81.03,91.45 C81.63,91.29 87.32,93.11 86.33,90.15 Z" fill="#EE3E23"/>
  <path d="M97.75,48.77 C97.75,48.77 18.69,49.44 15.66,49.67 C12.63,49.9 12.52,54.26 12.52,56.5 C12.52,58.74 12.54,66.68 12.65,68.36 C12.76,70.04 13.53,72.85 18.34,72.85 C23.15,72.85 45.78,72.96 45.78,72.96 C45.78,72.96 45,76.32 48.24,78.9 C51.49,81.48 53.95,81.03 59.89,81.14 C65.83,81.25 79.17,81.11 79.17,81.11 C79.17,81.11 87.88,107.35 88.56,108.8 C89.23,110.26 89.46,112.5 90.8,112.61 C92.14,112.72 106.25,112.72 107.93,112.61 C109.61,112.5 110.73,110.82 109.5,108.02 C108.27,105.22 99.2,81.37 99.2,81.37 C99.2,81.37 103.87,80.68 105.81,77.67 C107.29,75.37 107.38,72.29 107.38,72.29 C107.38,72.29 111.86,72.85 114.21,70.27 C116.56,67.69 115.78,64.67 115.89,60.19 C116,55.71 115.55,53.02 114.66,51.68 C113.77,50.34 112.53,50 112.53,50 C112.53,50 114.92,48.55 114.99,46.19 C115.1,42.83 114.77,33.31 114.77,31.63 C114.77,29.95 113.65,28.38 111.3,28.27 C109.51,28.18 102.9,28.21 100.1,28.16 C96.67,28.09 96.85,30.62 96.74,34.21 C96.65,37.12 96.63,44.39 96.63,45.41 C96.63,47.42 97.75,48.77 97.75,48.77 Z" fill="#FF8E00"/>
  <path d="M56.49,79.15 C56.49,79.15 55.58,86.14 59.51,90.01 C62.05,92.5 64.28,94.26 74.35,94.4 C84.49,94.54 87.84,94.54 87.84,94.54 L86.83,89.22 C86.83,89.22 72.88,90.23 67.06,89.08 C64.61,88.6 61.88,86.6 61.93,83.67 C61.97,81.39 61.9,78.44 61.9,78.44 L56.49,79.15 Z" fill="#FF8E00"/>
  <path d="M51.7,70.92 C51.7,72.68 52.46,73.15 54.81,73.15 C57.33,73.15 97.39,73.15 98.63,73.15 C99.87,73.15 101.5,72.68 101.45,70.75 C101.39,68.81 99.28,69.11 98.46,69.11 C97.64,69.11 56.52,69.11 54.76,69.11 C53,69.11 51.7,69.51 51.7,70.92 Z" fill="#EC3F23"/>
  <path d="M27.92,47.96 C27.92,47.96 27.92,73.39 27.92,73.87 C27.92,74.34 27.99,75.49 29.13,75.49 C30.28,75.49 30.55,74.68 30.55,73.87 C30.55,73.06 30.55,47.56 30.55,47.56 L27.92,47.96 Z" fill="#FCC11A"/>
  <path d="M32.58,47.38 C32.58,47.38 32.58,72.68 32.58,73.56 C32.58,74.44 32.78,75.45 33.86,75.45 C34.94,75.45 35.28,74.51 35.28,73.49 C35.28,72.48 35.28,46.57 35.28,46.57 L32.58,47.38 Z" fill="#FCC11A"/>
  <path d="M86.5,84.1 C86.65,85.67 87.68,86.35 89.48,86.41 C91.28,86.47 101.07,86.41 101.07,86.41 L99.49,82.02 C99.49,82.02 90.09,82.02 89.36,82.02 C88.63,82.02 86.28,81.79 86.5,84.1 Z" fill="#EE3E23"/>
  <path d="M88.3,89.95 C88.45,91.12 88.92,92.26 90.89,92.26 C93.08,92.26 103.38,92.26 103.38,92.26 L101.69,87.81 C101.69,87.81 91.79,87.81 90.83,87.81 C89.87,87.81 88.02,87.81 88.3,89.95 Z" fill="#EE3E23"/>
  <path d="M104,93.83 C104,93.83 93.14,93.83 92.01,93.83 C90.88,93.83 89.93,94.51 90.1,95.86 C90.27,97.21 90.83,97.94 92.52,98 C94.21,98.06 105.46,98 105.46,98 L104,93.83 Z" fill="#EE3E23"/>
  <path d="M106.14,99.46 C106.14,99.46 95.28,99.46 93.93,99.46 C92.58,99.46 91.62,100.25 92.13,101.71 C92.64,103.17 93.65,103.4 94.61,103.45 C95.57,103.51 107.61,103.45 107.61,103.45 L106.14,99.46 Z" fill="#EE3E23"/>
</svg>
